X:2276
T:Glory Reel
O:england
M:4/4
L:1/8
K:G
G2BG dGBG|G/2G/2G BG AFDF|G2BG dGBG|c/2c/2c Bc AFDF:|
:E6 cA|BGEB AFDF|E2~E2 E2cA|1BdcB AFDF:|2BdcB AFDf|
:gagf e3f|g2fg ecAf|gagf eaaf|1g2fg ecAf:|2g2 fg ecAF||


